images_sukapura_svg/cmd/lc_formproperties.svg

<svg viewBox="0 0 24 24" xmlns="http://www.w3.org/2000/svg" xmlns:xlink="http://www.w3.org/1999/xlink"><linearGradient id="a" gradientUnits="userSpaceOnUse" x1="12" x2="12" y1="2" y2="22"><stop offset="0" stop-color="#848489"/><stop offset="1" stop-color="#616165"/></linearGradient><linearGradient id="b" gradientUnits="userSpaceOnUse" x1="63" x2="63" y1="35" y2="20"><stop offset="0" stop-color="#e9e9e9"/><stop offset=".2857143" stop-color="#f2f2f2"/><stop offset="1" stop-color="#fbfbfb"/></linearGradient><path d="m3 6h18v15h-18z" fill="url(#b)"/><path d="m3 2c-.554 0-1 .446-1 1v18c0 .554.446 1 1 1h18c.554 0 1-.446 1-1v-18c0-.554-.446-1-1-1zm0 4h18v15h-18z" fill="url(#a)"/><g fill="#808080"><path d="m10.5 10c-.277 0-.5.223-.5.5v2c0 .277.223.5.5.5h7c.277 0 .5-.223.5-.5v-2c0-.277-.223-.5-.5-.5zm.5 1h6v1h-6z"/><path d="m6.5 10c-.277 0-.5.223-.5.5v2c0 .277.223.5.5.5h2c.277 0 .5-.223.5-.5v-2c0-.277-.223-.5-.5-.5zm.5 1h1v1h-1z"/><path d="m10.5 15c-.277 0-.5.223-.5.5v2c0 .277.223.5.5.5h7c.277 0 .5-.223.5-.5v-2c0-.277-.223-.5-.5-.5zm.5 1h6v1h-6z"/><path d="m6.5 15c-.277 0-.5.223-.5.5v2c0 .277.223.5.5.5h2c.277 0 .5-.223.5-.5v-2c0-.277-.223-.5-.5-.5zm.5 1h1v1h-1z"/></g></svg>

<?xml version="1.0" encoding="UTF-8" standalone="no"?>
<svg
   xmlns:dc="http://purl.org/dc/elements/1.1/"
   xmlns:cc="http://creativecommons.org/ns#"
   xmlns:rdf="http://www.w3.org/1999/02/22-rdf-syntax-ns#"
   xmlns:svg="http://www.w3.org/2000/svg"
   xmlns="http://www.w3.org/2000/svg"
   xmlns:xlink="http://www.w3.org/1999/xlink"
   xmlns:sodipodi="http://sodipodi.sourceforge.net/DTD/sodipodi-0.dtd"
   xmlns:inkscape="http://www.inkscape.org/namespaces/inkscape"
   viewBox="0 0 24 24"
   version="1.1"
   id="svg24"
   sodipodi:docname="lc_formproperties.svg"
   inkscape:version="0.92.3 (2405546, 2018-03-11)">
  <metadata
     id="metadata30">
    <rdf:RDF>
      <cc:Work
         rdf:about="">
        <dc:format>image/svg+xml</dc:format>
        <dc:type
           rdf:resource="http://purl.org/dc/dcmitype/StillImage" />
        <dc:title></dc:title>
      </cc:Work>
    </rdf:RDF>
  </metadata>
  <defs
     id="defs28">
    <linearGradient
       gradientTransform="translate(54,14)"
       id="a"
       gradientUnits="userSpaceOnUse"
       x1="8"
       x2="8"
       y1="15"
       y2="1">
      <stop
         offset="0"
         stop-color="#e9e9e9"
         id="stop2645" />
      <stop
         offset=".2857143"
         stop-color="#f2f2f2"
         id="stop2647" />
      <stop
         offset="1"
         stop-color="#fbfbfb"
         id="stop2649" />
    </linearGradient>
    <linearGradient
       inkscape:collect="always"
       id="linearGradient2434">
      <stop
         style="stop-color:#848489;stop-opacity:1"
         offset="0"
         id="stop2430" />
      <stop
         style="stop-color:#616165;stop-opacity:1"
         offset="1"
         id="stop2432" />
    </linearGradient>
    <linearGradient
       inkscape:collect="always"
       xlink:href="#linearGradient2434"
       id="linearGradient918"
       x1="12"
       y1="2"
       x2="12"
       y2="22"
       gradientUnits="userSpaceOnUse" />
    <linearGradient
       inkscape:collect="always"
       xlink:href="#a"
       id="linearGradient926"
       x1="9"
       y1="21"
       x2="9"
       y2="6"
       gradientUnits="userSpaceOnUse" />
  </defs>
  <sodipodi:namedview
     pagecolor="#ffffff"
     bordercolor="#666666"
     borderopacity="1"
     objecttolerance="10"
     gridtolerance="10"
     guidetolerance="10"
     inkscape:pageopacity="0"
     inkscape:pageshadow="2"
     inkscape:window-width="1366"
     inkscape:window-height="716"
     id="namedview26"
     showgrid="true"
     inkscape:zoom="6.9532167"
     inkscape:cx="-0.48722908"
     inkscape:cy="14.393771"
     inkscape:window-x="-8"
     inkscape:window-y="-8"
     inkscape:window-maximized="1"
     inkscape:current-layer="svg24">
    <inkscape:grid
       type="xygrid"
       id="grid840" />
  </sodipodi:namedview>
  <path
     d="m3 6h18v15h-18z"
     fill="#fff"
     id="path2"
     style="fill-opacity:1;fill:url(#linearGradient926)" />
  <path
     d="m3 2c-.554 0-1 .446-1 1v18c0 .554.446 1 1 1h18c.554 0 1-.446 1-1v-18c0-.554-.446-1-1-1zm0 4h18v15h-18z"
     fill="#808080"
     id="path4"
     style="fill-opacity:1;fill:url(#linearGradient918)" />
  <path
     style="fill:#808080"
     d="M 10.5,10 C 10.223,10 10,10.223 10,10.5 v 2 c 0,0.277 0.223,0.5 0.5,0.5 h 7 c 0.277,0 0.5,-0.223 0.5,-0.5 v -2 C 18,10.223 17.777,10 17.5,10 Z m 0.5,1 h 6 v 1 h -6 z"
     id="rect6-0"
     inkscape:connector-curvature="0"
     sodipodi:nodetypes="sssssssssccccc" />
  <path
     sodipodi:nodetypes="sssssssssccccc"
     inkscape:connector-curvature="0"
     id="path946"
     d="M 6.5,10 C 6.223,10 6,10.223 6,10.5 v 2 C 6,12.777 6.223,13 6.5,13 h 2 C 8.777,13 9,12.777 9,12.5 v -2 C 9,10.223 8.777,10 8.5,10 Z M 7,11 h 1 v 1 H 7 Z"
     style="fill:#808080" />
  <path
     sodipodi:nodetypes="sssssssssccccc"
     inkscape:connector-curvature="0"
     id="path928"
     d="M 10.5,15 C 10.223,15 10,15.223 10,15.5 v 2 c 0,0.277 0.223,0.5 0.5,0.5 h 7 c 0.277,0 0.5,-0.223 0.5,-0.5 v -2 C 18,15.223 17.777,15 17.5,15 Z m 0.5,1 h 6 v 1 h -6 z"
     style="fill:#808080" />
  <path
     style="fill:#808080"
     d="M 6.5,15 C 6.223,15 6,15.223 6,15.5 v 2 C 6,17.777 6.223,18 6.5,18 h 2 C 8.777,18 9,17.777 9,17.5 v -2 C 9,15.223 8.777,15 8.5,15 Z M 7,16 h 1 v 1 H 7 Z"
     id="path930"
     inkscape:connector-curvature="0"
     sodipodi:nodetypes="sssssssssccccc" />
</svg>
